src/assets/svg/icons/fa/nuevos/classic/light/person-harassing classic light.svg

<svg xmlns="http://www.w3.org/2000/svg" viewBox="0 0 576 512"><!--! Font Awesome Pro 6.4.0 by @fontawesome - https://fontawesome.com License - https://fontawesome.com/license (Commercial License) Copyright 2023 Fonticons, Inc. --><path d="M216 56a24 24 0 1 0 -48 0 24 24 0 1 0 48 0zm-80 0a56 56 0 1 1 112 0A56 56 0 1 1 136 56zM112 320h64V161.2c-3.4-.8-6.9-1.2-10.5-1.2H131.3c-6.8 0-13.3 1.4-19.3 4V320zm179.8-37.6L208 183.9V496c0 8.8-7.2 16-16 16s-16-7.2-16-16V352H112V496c0 8.8-7.2 16-16 16s-16-7.2-16-16V202.2L30.1 295.5c-4.2 7.8-13.9 10.7-21.7 6.6s-10.7-13.9-6.6-21.7L60.7 170.3c13.9-26 41-42.3 70.6-42.3h34.2c23.5 0 45.7 10.3 60.9 28.2l89.8 105.5c5.7 6.7 4.9 16.8-1.8 22.6s-16.8 4.9-22.6-1.8zM304 32h56c8.8 0 16 7.2 16 16s-7.2 16-16 16H304c-8.8 0-16-7.2-16-16s7.2-16 16-16zM432 272a24 24 0 1 0 0-48 24 24 0 1 0 0 48zm0-80a56 56 0 1 1 0 112 56 56 0 1 1 0-112zm88 96c30.9 0 56 25.1 56 56V456c0 30.9-25.1 56-56 56c-25.1 0-48.8-11.5-64.4-31.3l-53.5-68.2-52.2 91.4c-4.4 7.7-14.2 10.3-21.8 6s-10.3-14.2-6-21.8l64-112c2.6-4.6 7.4-7.6 12.7-8s10.5 1.9 13.8 6.1L464 439.6V344c0-30.9 25.1-56 56-56zm0 192c13.3 0 24-10.7 24-24V344c0-13.3-10.7-24-24-24s-24 10.7-24 24V456c0 13.3 10.7 24 24 24zM265.7 104.8c4-7.9 13.6-11.1 21.5-7.2l48 24c7.9 4 11.1 13.6 7.2 21.5s-13.6 11.1-21.5 7.2l-48-24c-7.9-4-11.1-13.6-7.2-21.5z"/></svg>

<svg xmlns="http://www.w3.org/2000/svg" viewBox="0 0 576 512"><path d="M247.1 56C247.1 86.93 222.9 112 191.1 112C161.1 112 135.1 86.93 135.1 56C135.1 25.07 161.1 0 191.1 0C222.9 0 247.1 25.07 247.1 56zM191.1 32C178.7 32 167.1 42.75 167.1 56C167.1 69.25 178.7 80 191.1 80C205.3 80 215.1 69.25 215.1 56C215.1 42.75 205.3 32 191.1 32zM291.8 282.4L208 183.9V496C208 504.8 200.8 512 192 512C183.2 512 176 504.8 176 496V352H111.1V496C111.1 504.8 104.8 512 95.1 512C87.16 512 79.1 504.8 79.1 496V202.2L30.12 295.5C25.95 303.3 16.26 306.3 8.464 302.1C.6701 297.9-2.273 288.3 1.891 280.5L60.73 170.3C74.65 144.3 101.8 128 131.3 128H165.5C188.1 128 211.2 138.3 226.4 156.2L316.2 261.6C321.9 268.4 321.1 278.5 314.4 284.2C307.6 289.9 297.5 289.1 291.8 282.4V282.4zM176 320V161.2C172.6 160.4 169.1 160 165.5 160H131.3C124.5 160 117.1 161.4 111.1 164V320H176zM360 32C368.8 32 376 39.16 376 48C376 56.84 368.8 64 360 64H304C295.2 64 287.1 56.84 287.1 48C287.1 39.16 295.2 32 304 32H360zM376 248C376 217.1 401.1 192 432 192C462.9 192 488 217.1 488 248C488 278.9 462.9 304 432 304C401.1 304 376 278.9 376 248zM432 272C445.3 272 456 261.3 456 248C456 234.7 445.3 224 432 224C418.7 224 408 234.7 408 248C408 261.3 418.7 272 432 272zM576 344V456C576 486.9 550.9 512 520 512C494.9 512 471.2 500.5 455.6 480.7L402.1 412.6L349.9 503.9C345.5 511.6 335.7 514.3 328.1 509.9C320.4 505.5 317.7 495.7 322.1 488.1L386.1 376.1C388.7 371.4 393.5 368.4 398.8 368C404.1 367.7 409.3 369.9 412.6 374.1L464 439.6V344C464 313.1 489.1 288 520 288C550.9 288 576 313.1 576 344H576zM520 480C533.3 480 544 469.3 544 456V344C544 330.7 533.3 320 520 320C506.7 320 496 330.7 496 344V456C496 469.3 506.7 480 520 480zM265.7 104.8C269.6 96.94 279.3 93.74 287.2 97.69L335.2 121.7C343.1 125.6 346.3 135.3 342.3 143.2C338.4 151.1 328.7 154.3 320.8 150.3L272.8 126.3C264.9 122.4 261.7 112.7 265.7 104.8V104.8z"/></svg>
